svgs/regular/money-check.svg

<svg xmlns="http://www.w3.org/2000/svg" viewBox="0 0 576 512"><!--! Font Awesome Pro 6.4.2 by @fontawesome - https://fontawesome.com License - https://fontawesome.com/license (Commercial License) Copyright 2023 Fonticons, Inc. --><path d="M64 112c-8.8 0-16 7.2-16 16V384c0 8.8 7.2 16 16 16H512c8.8 0 16-7.2 16-16V128c0-8.8-7.2-16-16-16H64zM0 128C0 92.7 28.7 64 64 64H512c35.3 0 64 28.7 64 64V384c0 35.3-28.7 64-64 64H64c-35.3 0-64-28.7-64-64V128zm120 80H264c13.3 0 24 10.7 24 24s-10.7 24-24 24H120c-13.3 0-24-10.7-24-24s10.7-24 24-24zM96 328c0-13.3 10.7-24 24-24H456c13.3 0 24 10.7 24 24s-10.7 24-24 24H120c-13.3 0-24-10.7-24-24zM376 160h80c13.3 0 24 10.7 24 24v48c0 13.3-10.7 24-24 24H376c-13.3 0-24-10.7-24-24V184c0-13.3 10.7-24 24-24z"/></svg>

<svg xmlns="http://www.w3.org/2000/svg" viewBox="0 0 576 512"><!--! Font Awesome Pro 6.1.1 by @fontawesome - https://fontawesome.com License - https://fontawesome.com/license (Commercial License) Copyright 2022 Fonticons, Inc. --><path d="M264 208C277.3 208 288 218.7 288 232C288 245.3 277.3 256 264 256H120C106.7 256 96 245.3 96 232C96 218.7 106.7 208 120 208H264zM96 328C96 314.7 106.7 304 120 304H456C469.3 304 480 314.7 480 328C480 341.3 469.3 352 456 352H120C106.7 352 96 341.3 96 328zM456 160C469.3 160 480 170.7 480 184V232C480 245.3 469.3 256 456 256H376C362.7 256 352 245.3 352 232V184C352 170.7 362.7 160 376 160H456zM0 128C0 92.65 28.65 64 64 64H512C547.3 64 576 92.65 576 128V384C576 419.3 547.3 448 512 448H64C28.65 448 0 419.3 0 384V128zM48 128V384C48 392.8 55.16 400 64 400H512C520.8 400 528 392.8 528 384V128C528 119.2 520.8 112 512 112H64C55.16 112 48 119.2 48 128z"/></svg>
